X:1
T:Title
%%score { 1 | ( 2 3 ) }
L:1/8
M:4/4
K:Eb
V:1 treble nm="Grand Piano"
V:2 bass 
V:3 bass 
V:1
 z4 z2[Q:1/4=112] B2 | =A2 B2 c2 B2 | [CB]2 [A,CA]2 [B,CG]2 [A,CF]2 | %3
 [G,B,E]3 [G,E] [B,DF]2 [B,DF]2 | [B,EG]6 [B,EG]2 | [A,DF]3 [G,_D=E] [A,=DF]2 [B,_EG]2 | %6
 [DB]2 [DA]2 [DA]2 [B,DF]2 | [B,EG]3 [B,EG] [CE=A]2 [CEA]2 | [B,DB]6 z2 | [Bd]3 c B2 [B,FA]2 | %10
 [FA]3 G G2 B2 | [Ac]3 B A2 [EG]2 | [EG]3 F F2 z2 | G4 A3 c | B4 G2 z2 | E4 F3 A | G6 [GB]2 | %17
 [Ge]2 d2 c2 B2 | [CB]2 [CA]2 [B,CG]2 [A,CF]2 | E4 F3 D |[M:3/4] E6 |] %21
V:2
 z4 z2 [E,G,E]2 | [E,_G,E]2 [E,=G,E]2 [E,A,E]2 [E,G,_D]2 | [A,,E,]2 A,,2 A,,2 A,,2 | %3
 B,,3 B,, B,,2 B,,2 | E,6 E,2 | B,,3 B,, B,,2 B,,2 | [B,,G,]2 [B,,F,]2 [B,,F,]2 B,,2 | %7
 E,3 E, C,2 F,2 | B,,6[K:treble] B2 | z2 z A G2[K:bass] B,,2 | z2 z[K:treble] E E2 G2 | %11
 z2 z G F2[K:bass] E,2 | z2 z D D2 z2 | [E,B,E]4 [E,CE]3 [E,A,E] | [E,G,E]4 [E,B,E]2 z2 | %15
 [E,G,]4 [E,A,C]3 [E,CE] | [E,B,E]6 [E,B,]2 | [E,B,]2 [E,B,E]2 [E,A,E]2 [E,G,_D]2 | %18
 [A,,F,]2 A,,2 A,,2 A,,2 | [B,,G,B,]4 [B,,A,B,]3 [B,,F,B,] |[M:3/4] [E,G,B,]6 |] %21
V:3
 x8 | x8 | x8 | x8 | x8 | x8 | x8 | x8 | x6[K:treble] x2 | B,,6[K:bass] z2 | [E,B,]6[K:treble] z2 | %11
 E,6[K:bass] z2 | B,,6 z2 | x8 | x8 | x8 | x8 | x8 | x8 | x8 |[M:3/4] x6 |] %21

